X: 9
M: 3/8
L: 1/16
K: G
V: 1
|:\
|:\
d2edcB | cedcBA | BdcBAG | FGAFED |\
d2e2f2 | g2fedc | B2c2TA2 | G6 :|
V:2 clef=bass middle=d
|:\
z6 | G2B2d2 | g4 f2 | g2d2B2 | G2g2f2 | e2^c2d2 |
g2a2A2 | d6 :||: b2g2e2 | a2f2d2 | g2e2c2 |
d2d'2c'2 | b4 a2 | g4 f2 | g2c2d2 | G6 :|

